X:15
T:The Gammaho
S:Bernie Waugh
R:Jig
M:6/8
L:1/8
K:E Dor
|:\
"Em"~B2B efg|"D"~f2f edc|"Em"~B2B [B2e2]e|"A"ecA [E2A2]A|
"Em"~B2B efg|"D"~f2f edc|"Em"~B2B "F#m"d2d|"G"dBG G3:|
"Em"Bcd "A"cA/A/A|BA/A/A cA/A/A|"Em"dB/B/B efe|"A"ecA [E3A3]|
"Em"Bcd cA/A/A|"A"BA/A/A cA/A/A|"Em"gfe "F#m"dBg|"G"dBG G3|
"A"Bc/B/A a3|"F#m"bc'b a3|"D"bc'/a/e a2a|"A"ecA [E3A3]|
"A"Bc/B/A a3|"F#m"bc'b a3|"Em"bc'/a/e "F#m"~g2g|"G"dBG G3||

